X:18
T:An dro
C:E. Grandjean: L'amant doux
M:4/4
L:1/8
K:G
G2 GA B2 B2|A2G2 ABAB|G2 GA B2 c2|B2 AG A4:|\
|:G2A2B4|cBAB G2 dB|G2 GA B2 dB|AGAF G4:|
